X:645
T:Polska # 645
S:efter Anders Gustaf Andersson
B:Sörmlands musikarkiv - Anders Gustaf Andersson, Nora (pdf), nr 645
O:Mörkö, Södermanland
R:Slängpolska
M:3/4
L:1/16
K:D
Q:110
d2z2c4d4 | (e2d2) c2d2 e2g2 | f2{gf}ef g2f2 e2d2 | (c2c'2) b2(a2 g2)(f2 |
d2)(A2 F2)(A2 d2)f2 | e2{fe}c2 A2c2 e2g2 | f2ef g2f2 e2d2 | d2cc c2d2 d4 ::
a2ff f2a2 (ba)gf | g2ee e2g2 agfe | f2dd d2ef gfed | cdcB ABAG F2D2 |
a2ff f2a2 (ba)gf | g2ee e2g2 agfe | f2dd d2ef gfed | d2cc c2d2 d4 :|

